X: 1
T: Cock of the North
T: aka "Aunt Mary", "Joan's Placket", "Jumping John", etc.
C: unknown
%D1667
R: jig, march
S: Fiddle Hell Online 2020-11-05 handout for Qu\'ebecois Jam
Z: 2021 John Chambers <jc:trillian.mit.edu>
M: 6/8
L: 1/8
K: A
|:\
"A"cdc cBA | c2e "D"f2e | "A"cdc     cBA | "E7"B3 B3 |\
"A"cdc cBA | c2e "D"f2e | "A"cdc "E7"BcB |  "A"A3 A3 :|
|:\
"A"a2e "D"f2e | "A"a2e "D"f2e | "A"cdc     cBA | "E7"B3 B3 |\
"A"a2e "D"f2e | "A"a2e "D"f2e | "A"cdc "E7"BcB |  "A"A3 A3 :|
